!!!COM: des Prez, Josquin
!!!CDT: ~1450-1521/08/27
!!!OTL: A la mort / Monstra te esse matrem
!!!AGN: Chanson; Motet-Chanson
!!!SCT: NJE 27.1
!!!SCA: New Josquin Edition 27.1
!!!voices: 3
**kern	**text	**kern	**text	**kern	**text
*staff3	*	*staff2	*	*staff1	*
*Ivox	*	*Ivox	*	*Ivox	*
*I"Contra	*	*I"Tenor	*	*I"Superius	*
*I'C	*	*I'T	*	*I'S	*
*clefF4	*	*clefGv2	*	*clefG2	*
*k[]	*	*k[]	*	*k[]	*
*M2/1	*	*M2/1	*	*M2/1	*
*met(C|)	*	*met(C|)	*	*met(C|)	*
=1-	=1-	=1-	=1-	=1-	=1-
!LO:TX:Z=6:t=Ct&colon; two identical c.f. statements beginning on d, A	!	!	!	!	!
0r	.	0r	.	1d	A
.	.	.	.	1d	la
=2	=2	=2	=2	=2	=2
0r	.	1A	A	0a	mort
.	.	1A	la	.	.
=3	=3	=3	=3	=3	=3
0r	.	[0e	mort	1g	on
.	.	.	.	1g	pri-
=4	=4	=4	=4	=4	=4
0r	.	0e]	.	1g	-oit
.	.	.	.	1g	a
=5	=5	=5	=5	=5	=5
0r	.	1d	on	1.f	l'heu-
.	.	1d	pri-	.	.
.	.	.	.	4e/	.
.	.	.	.	4d/	.
=6	=6	=6	=6	=6	=6
0D	Mon-	1d	-oit	2.f/	.
.	.	.	.	4g/	.
.	.	1d	a	2.a/	.
.	.	.	.	4b\	.
=7	=7	=7	=7	=7	=7
0A	-stra	1.c	l'heu-	2cc\	.
.	.	.	.	4a/	.
.	.	.	.	4b\	.
.	.	.	.	4cc\	.
.	.	.	.	4dd\	.
.	.	4B\	.	[2ee\	.
.	.	4A/	.	.	.
=8	=8	=8	=8	=8	=8
1.A	.	2c\	.	4ee\]	.
.	.	.	.	4dd\	.
.	.	2d\	.	1dd	.
.	.	1e	.	.	.
4G\	.	.	.	2cc#i\	.
4A\	.	.	.	.	.
=9	=9	=9	=9	=9	=9
[0B	.	0d	-re&colon;	1dd	-re&colon;
.	.	.	.	1r	.
=10	=10	=10	=10	=10	=10
0B]	.	1r	.	1d	Je
.	.	1G	Je	1d	te
=11	=11	=11	=11	=11	=11
0r	.	1G	te	1d	re-
.	.	1G	re-	[1g	-quiers
=12	=12	=12	=12	=12	=12
0r	.	0c	-quiers	1g]	.
.	.	.	.	1g	de
=13	=13	=13	=13	=13	=13
0r	.	1c	de	1a	cueur
.	.	1d	cueur	1a	con-
=14	=14	=14	=14	=14	=14
0G	te	1d	con-	1b	-trit,
.	.	1e	-trit,	2r	.
.	.	.	.	2b\	je
=15	=15	=15	=15	=15	=15
0A	es-	2r	.	2.cc\	te
.	.	2A/	je	.	.
.	.	.	.	4b\	.
.	.	2c\	te	1a	re-
.	.	2d\	re-	.	.
=16	=16	=16	=16	=16	=16
0c	-se	2.e\	-quiers	2.g/	-quiers,
.	.	4d\	.	4f/	.
.	.	4e\	.	4g/	.
.	.	4f\	.	4a/	.
.	.	[2e\	.	[2g/	.
=17	=17	=17	=17	=17	=17
0r	.	4e\]	.	2g/]	.
.	.	4d\	.	.	.
.	.	1c	.	4e/	.
.	.	.	.	4f/	.
.	.	.	.	4g/	.
.	.	.	.	4a/	.
.	.	4B\	.	[2g/	.
.	.	4A/	.	.	.
=18	=18	=18	=18	=18	=18
0B	ma-	0G	.	2g/]	.
.	.	.	.	4f/	.
.	.	.	.	4e/	.
.	.	.	.	2d/	.
.	.	.	.	[2g/	je
=19	=19	=19	=19	=19	=19
0c	.	1r	.	4g/]	.
.	.	.	.	4e/	te
.	.	.	.	2a/	re-
.	.	1e	de	2g/	-quiers
.	.	.	.	2cc\	de
=20	=20	=20	=20	=20	=20
0d	.	1.f	cueur	2b\	cueur
.	.	.	.	1a	con-
.	.	4e\	.	4g/	.
.	.	4f\	.	4f/	.
=21	=21	=21	=21	=21	=21
1c	.	1g	.	1e	-trit,
1A	.	1c	con-	2r	.
.	.	.	.	2a/	de
=22	=22	=22	=22	=22	=22
0B	.	1.d	-trit,	2g/	cueur
.	.	.	.	1f	con-
.	.	4c\	.	4e/	.
.	.	4d\	.	4d/	.
=23	=23	=23	=23	=23	=23
0A	-trem,	0e	.	0c	-trit,
=24	=24	=24	=24	=24	=24
0r	.	0d	Da-	1.f	Da-
.	.	.	.	4e/	.
.	.	.	.	4d/	.
=25	=25	=25	=25	=25	=25
0r	.	1g	-me	1e	-me
.	.	1g	des	1e	des
=26	=26	=26	=26	=26	=26
0r	.	1.f	cieulx,	1d	cieulx,
.	.	.	.	1d	rends
.	.	4e\	.	.	.
.	.	4d\	.	.	.
=27	=27	=27	=27	=27	=27
0r	.	1e	.	1.g	mon
.	.	1c	rends	.	.
.	.	.	.	4f/	.
.	.	.	.	4e/	.
=28	=28	=28	=28	=28	=28
0r	.	1d	mon	1f	.
.	.	1d	es-	1f	es-
=29	=29	=29	=29	=29	=29
0r	.	2.A/	-prit,	1e	-prit,
.	.	4B\	.	.	.
.	.	2.c\	.	2r	.
.	.	.	.	2A/	rends
.	.	4d\	.	.	.
=30	=30	=30	=30	=30	=30
0AA	Mon-	1e	.	2.c/	mon
.	.	.	.	4d/	.
.	.	1c	rends	2e/	.
.	.	.	.	2f/	.
=31	=31	=31	=31	=31	=31
0E	-stra	2B\	mon	2.g/	.
.	.	4e\	.	.	.
.	.	4d\	.	4f/	.
.	.	4c\	.	4e/	.
.	.	4B\	.	4d/	.
.	.	2c\	.	[2e/	.
=32	=32	=32	=32	=32	=32
1.E	.	4B\	es-	2e/]	.
.	.	4A/	.	.	.
.	.	1A	.	2c/	.
.	.	.	.	1B	es-
4D\	.	2G#i/	.	.	.
4E\	.	.	.	.	.
=33	=33	=33	=33	=33	=33
[0F	.	0A	-prit	1A	-prit
.	.	.	.	1r	.
=34	=34	=34	=34	=34	=34
0F]	.	1r	.	0a	De-
.	.	1A	De-	.	.
=35	=35	=35	=35	=35	=35
0r	.	1c	-vant	1a	-vant
.	.	1d	ton	1a	ton
=36	=36	=36	=36	=36	=36
0r	.	2e\	filz,	2.g/	filz,
.	.	2c\	.	.	.
.	.	.	.	4a/	.
.	.	2d\	.	2b\	.
.	.	2e\	de-	[2cc\	de-
=37	=37	=37	=37	=37	=37
0r	.	2.f\	-vant	4cc\]	.
.	.	.	.	4b\	.
.	.	.	.	4a/	.
.	.	4e\	.	4g/	.
.	.	4d\	.	2b\	-vant
.	.	4c\	.	.	.
.	.	[2d\	.	[2a/	ton
=38	=38	=38	=38	=38	=38
0D	te	2d\]	.	4a/]	.
.	.	.	.	4g/	.
.	.	2B\	.	1g	.
.	.	1A	ton	.	.
.	.	.	.	2f#i/	.
=39	=39	=39	=39	=39	=39
0E	es-	1.G	filz	1g	filz
.	.	.	.	1e	.
.	.	2A/	.	.	.
=40	=40	=40	=40	=40	=40
0G	-se	1B	.	1d	.
.	.	1B	et	2r	.
.	.	.	.	[2g/	et
=41	=41	=41	=41	=41	=41
0r	.	0c	me	2g/]	.
.	.	.	.	2a/	me
.	.	.	.	2g/	se-
.	.	.	.	[2a/	--queu-
=42	=42	=42	=42	=42	=42
0F	ma-	1c	se-	4a/]	.
.	.	.	.	4b\	.
.	.	.	.	1cc	.
.	.	[1d	-queu-	.	.
.	.	.	.	4b\	.
.	.	.	.	4a/	.
=43	=43	=43	=43	=43	=43
0G	.	2d\]	.	2b\	.
.	.	4c\	.	2a/	.
.	.	4d\	.	.	.
.	.	[1e	-re,	2g/	.
.	.	.	.	2f/	.
=44	=44	=44	=44	=44	=44
0A	.	1e]	.	1e	-re,
.	.	1c	et	1cc	et
=45	=45	=45	=45	=45	=45
1G	.	2d\	me	2.b\	me
.	.	2.e\	.	.	.
.	.	.	.	4a/	.
1E	.	.	.	2b\	se-
.	.	4d\	.	.	.
.	.	4c\	.	[2cc\	-queu-
.	.	4B\	.	.	.
=46	=46	=46	=46	=46	=46
0F	.	2A/	.	4cc\]	.
.	.	.	.	4b\	.
.	.	1c	se-	4a/	.
.	.	.	.	4g/	.
.	.	.	.	2a/	-re,
.	.	4B\	.	[2cc\	se-
.	.	4A/	.	.	.
=47	=47	=47	=47	=47	=47
0E	.	2e\	.	2cc\]	.
.	.	4g\	-queu-	4b\	.
.	.	4f\	.	4a/	.
.	.	4e\	.	2cc\	.
.	.	4d\	.	.	.
.	.	[2e\	.	[2b\	-queu-
=48	=48	=48	=48	=48	=48
0r	.	2e\]	.	4b\]	.
.	.	.	.	4a/	.
.	.	2c\	.	1a	.
.	.	1B	.	.	.
.	.	.	.	2g#i/	.
=49	=49	=49	=49	=49	=49
0AAl	-trem.	0Al	-re.	0al	-re.
==	==	==	==	==	==
*-	*-	*-	*-	*-	*-
!!!RDF**kern: l=long note in original notation
!!!RDF**kern: i=editorial accidental
!!!ENC: Jesse Rodin; 2011/05/30/
!!!END: 2011/05/30/
!!!EED: Jesse Rodin
!!!EEV: 2011/08/09/
!!attribution-level@Jos: 2 (provisionally attributable [parentheses checkmark])
!!!ONB: Translated from MusicXML and edited on 2011/08/09/ by Craig Sapp
!!muse2ps:  C^@{COM}\n@{SCT}^i2I150v90,90,120c105z18l2700t130
